X:1
T:Title
%%score { 1 | 2 }
L:1/8
M:9/8
K:D
V:1 treble nm="Grand Piano"
V:2 bass 
V:1
 z3 z3[Q:1/4=95] DF[FA] | [Fd]3 [DAd]3 [DBd][DAc][DGB] | [DFA]6 [A,DF][A,EG][DFA] | %3
 [DGB]3 [DGB]3 [DFA][DEG][A,DF] | [A,CE]6 [F,D][K:treble][A,DF][A,FA] | [Fd]3 F3 FGA | B6 EFG | %7
 [DA]3 [DA]2 [FA] [EG][DF][CE] |[M:3/4] D6 |[M:3/8] ccd |[M:9/8] e3 A3 [GA][GB][Gc] | [Fd]6 ccd | %12
 e3 [DAd]2 [DAd] [EAc][EAc][D^GB] | [CA]6 [F,D][A,DF][A,FA] | [Fd]3 F3 FGA | B6 EFG | %16
 [DA]3 [DA]2 [FA] [EG][DF][CE] |[M:3/4] D6 |] %18
V:2
 z3 z3 [D,F,][D,A,D][D,A,] | [D,A,]3 F,3 G,G,G, | D,6 D,D,D, | G,3 G,3 D,D,D, | A,,6 D,D,D, | %5
 [D,A,]3 [D,A,D]3 [D,A,D][E,A,D][F,A,D] | [G,D]6 [G,B,D][F,B,D][E,B,D] | %7
 [A,,F,]3 [A,,F,]2 [A,,A,] [A,,A,][A,,A,][A,,G,] |[M:3/4] [D,F,]6 | %9
[M:3/8][K:treble] [A,E][A,E][A,F] |[M:9/8] [A,G]3 [A,G]3[K:bass] [A,,A,][A,,A,][A,,A,] | %11
 [D,A,]6 [A,E][K:treble][A,E][A,F] | [A,CA]3[K:bass] F,2 F, E,E,E, | A,,6 D,D,D, | %14
 [D,A,]3 [D,A,D]3 [D,A,C][E,A,C][F,A,C] | [G,D]6 [G,B,D][F,B,D][E,B,D] | %16
 [A,,F,]3 [A,,F,]2 [A,,A,] [A,,A,][A,,A,][A,,G,] |[M:3/4] [D,F,]6 |] %18

